packages/icons/general/Provider.svg

<svg width="17" height="16" viewBox="0 0 17 16" xmlns="http://www.w3.org/2000/svg">
<g>
        <path
            fill-rule="evenodd"
            clip-rule="evenodd"
            d="M2.6333 2.79997C2.6333 2.43178 2.93178 2.1333 3.29997 2.1333H8.0049V3.19997H3.69997V12.8H13.3V8.31266H14.3666V13.2C14.3666 13.5682 14.0682 13.8666 13.7 13.8666H3.29997C2.93178 13.8666 2.6333 13.5682 2.6333 13.2V2.79997ZM9.60936 2.66663C9.60936 2.37208 9.84814 2.1333 10.1427 2.1333H13.8333C14.1279 2.1333 14.3666 2.37208 14.3666 2.66663V6.32887C14.3666 6.62342 14.1279 6.86221 13.8333 6.86221C13.5387 6.86221 13.3 6.62342 13.3 6.32887V3.96988L6.71998 10.6629C6.51349 10.8729 6.17581 10.8758 5.96576 10.6693C5.75572 10.4628 5.75284 10.1251 5.95934 9.9151L12.5611 3.19997H10.1427C9.84814 3.19997 9.60936 2.96119 9.60936 2.66663Z"
            fill="#767F8D"
        />
    </g>
</svg>

<svg xmlns="http://www.w3.org/2000/svg" width="17" height="16">
    <path fill="#767F8D" fill-rule="evenodd" d="M2.633 2.8c0-.368.299-.667.667-.667h4.705V3.2H3.7v9.6h9.6V8.313h1.067V13.2a.667.667 0 0 1-.667.667H3.3a.667.667 0 0 1-.667-.667V2.8Zm6.976-.133c0-.295.24-.534.534-.534h3.69c.295 0 .534.24.534.534v3.662a.533.533 0 1 1-1.067 0v-2.36l-6.58 6.694a.533.533 0 0 1-.76-.748l6.6-6.715h-2.418a.533.533 0 0 1-.534-.533Z" clip-rule="evenodd"/>
</svg>
